public/images/chartwarning.svg

<svg xmlns="http://www.w3.org/2000/svg" width="191" height="118" fill="none" viewBox="0 0 191 118"><path fill="#ED4B9E" d="M170.5 81C169.948 81 169.5 80.5523 169.5 80L169.5 45C169.5 44.4477 169.948 44 170.5 44C171.052 44 171.5 44.4477 171.5 45L171.5 80C171.5 80.5523 171.052 81 170.5 81Z"/><path fill="#ED4B9E" d="M142.5 92C141.948 92 141.5 91.5523 141.5 91L141.5 56C141.5 55.4477 141.948 55 142.5 55C143.052 55 143.5 55.4477 143.5 56L143.5 91C143.5 91.5523 143.052 92 142.5 92Z"/><path fill="#31D0AA" d="M156.5 76C155.948 76 155.5 75.5523 155.5 75L155.5 40C155.5 39.4477 155.948 39 156.5 39C157.052 39 157.5 39.4477 157.5 40L157.5 75C157.5 75.5523 157.052 76 156.5 76Z"/><path fill="#31D0AA" d="M184.5 66C183.948 66 183.5 65.5523 183.5 65L183.5 30C183.5 29.4477 183.948 29 184.5 29C185.052 29 185.5 29.4477 185.5 30L185.5 65C185.5 65.5523 185.052 66 184.5 66Z"/><path fill="#ED4B9E" d="M166.646 74C165.461 74 164.5 73.0391 164.5 71.8537L164.5 52.1463C164.5 50.9609 165.461 50 166.646 50L174.354 50C175.539 50 176.5 50.9609 176.5 52.1463L176.5 71.8537C176.5 73.0391 175.539 74 174.354 74L166.646 74Z"/><path fill="#ED4B9E" d="M138.646 85C137.461 85 136.5 84.0391 136.5 82.8537L136.5 63.1463C136.5 61.9609 137.461 61 138.646 61L146.354 61C147.539 61 148.5 61.9609 148.5 63.1463L148.5 82.8537C148.5 84.0391 147.539 85 146.354 85L138.646 85Z"/><path fill="#31D0AA" d="M152.646 70C151.461 70 150.5 69.0391 150.5 67.8537L150.5 48.1463C150.5 46.9609 151.461 46 152.646 46L160.354 46C161.539 46 162.5 46.9609 162.5 48.1463L162.5 67.8537C162.5 69.0391 161.539 70 160.354 70L152.646 70Z"/><path fill="#31D0AA" d="M181.015 59C179.83 59 178.869 58.0391 178.869 56.8537L178.869 37.1463C178.869 35.9609 179.83 35 181.015 35L188.722 35C189.908 35 190.869 35.9609 190.869 37.1463L190.869 56.8537C190.869 58.0391 189.908 59 188.722 59L181.015 59Z"/><path fill="#FAF9FA" d="M1.21008 30.6657C0.614379 24.3718 5.23373 18.7866 11.5277 18.1909L54.9758 14.0787C61.2698 13.483 66.8549 18.1024 67.4506 24.3963L73.383 87.0756C73.9787 93.3696 69.3593 98.9547 63.0654 99.5504L19.6173 103.663C13.3233 104.258 7.73814 99.639 7.14244 93.345L1.21008 30.6657Z"/><path fill="#BDC2C4" fill-rule="evenodd" d="M55.1643 16.0698L11.7161 20.182C6.52184 20.6736 2.70956 25.283 3.20118 30.4773L9.13354 93.1566C9.62516 98.3509 14.2345 102.163 19.4288 101.672L62.8769 97.5593C68.0712 97.0677 71.8835 92.4583 71.3919 87.264L65.4595 24.5848C64.9679 19.3905 60.3586 15.5782 55.1643 16.0698ZM11.5277 18.1909C5.23373 18.7866 0.614379 24.3718 1.21008 30.6657L7.14244 93.345C7.73814 99.639 13.3233 104.258 19.6173 103.663L63.0654 99.5504C69.3593 98.9547 73.9787 93.3695 73.383 87.0756L67.4506 24.3963C66.8549 18.1024 61.2698 13.483 54.9758 14.0787L11.5277 18.1909Z" clip-rule="evenodd"/><path fill="#fff" d="M7.03418 46.6437C6.81079 44.2835 8.54305 42.189 10.9033 41.9656L60.0495 37.3141C62.4097 37.0907 64.5042 38.823 64.7276 41.1832L67.5589 71.0983C67.7823 73.4586 66.0501 75.553 63.6898 75.7764L14.5436 80.4279C12.1834 80.6513 10.0889 78.919 9.86553 76.5588L7.03418 46.6437Z"/><path fill="#BDC2C4" fill-rule="evenodd" d="M60.238 39.3052L11.0917 43.9567C9.83115 44.076 8.90597 45.1947 9.02528 46.4553L11.8566 76.3703C11.9759 77.6309 13.0946 78.5561 14.3551 78.4368L63.5014 73.7853C64.7619 73.666 65.6871 72.5474 65.5678 71.2868L62.7365 41.3717C62.6172 40.1111 61.4985 39.1859 60.238 39.3052ZM10.9033 41.9656C8.54305 42.189 6.81079 44.2835 7.03418 46.6437L9.86553 76.5588C10.0889 78.919 12.1834 80.6513 14.5436 80.4279L63.6898 75.7764C66.0501 75.553 67.7823 73.4586 67.5589 71.0983L64.7276 41.1832C64.5042 38.823 62.4097 37.0907 60.0495 37.3141L10.9033 41.9656Z" clip-rule="evenodd"/><path fill="#ED4B9E" d="M14.4022 67.5055C14.1788 65.1453 15.9111 63.0508 18.2713 62.8275L56.7336 59.1871C59.0938 58.9638 61.1883 60.696 61.4117 63.0563L61.6139 65.193C61.8373 67.5533 60.105 69.6477 57.7448 69.8711L19.2825 73.5114C16.9223 73.7348 14.8278 72.0025 14.6045 69.6423L14.4022 67.5055Z"/><path fill="#31D0AA" d="M12.9866 52.548C12.7632 50.1878 14.4954 48.0933 16.8557 47.8699L55.3179 44.2296C57.6782 44.0062 59.7726 45.7385 59.996 48.0987L60.1982 50.2355C60.4216 52.5958 58.6894 54.6902 56.3291 54.9136L17.8669 58.5539C15.5066 58.7773 13.4122 57.045 13.1888 54.6848L12.9866 52.548Z"/><path fill="#BDC2C4" d="M16.0467 39.3225L28.4592 25.9929C31.4251 22.8078 36.3052 22.346 39.816 24.918L54.5089 35.6822L16.0467 39.3225Z"/><path fill="#BDC2C4" d="M20.0914 82.0584L34.7843 92.8225C38.2952 95.3946 43.1752 94.9327 46.1412 91.7476L58.5537 78.4181L20.0914 82.0584Z"/><path fill="#7645D9" fill-rule="evenodd" d="M87.275 52.4314C87.275 50.6533 88.7164 49.2119 90.4945 49.2119H118.397C120.175 49.2119 121.616 50.6533 121.616 52.4314C121.616 54.2095 120.175 55.6509 118.397 55.6509H90.4945C88.7164 55.6509 87.275 54.2095 87.275 52.4314Z" clip-rule="evenodd"/><path fill="#7645D9" fill-rule="evenodd" d="M87.275 65.3094C87.275 63.5313 88.7164 62.0898 90.4945 62.0898H118.397C120.175 62.0898 121.616 63.5313 121.616 65.3094C121.616 67.0874 120.175 68.5289 118.397 68.5289H90.4945C88.7164 68.5289 87.275 67.0874 87.275 65.3094Z" clip-rule="evenodd"/><path fill="#7645D9" fill-rule="evenodd" d="M95.6437 78.9906C94.0147 78.2779 93.2718 76.3796 93.9845 74.7506L109.008 40.4092C109.721 38.7802 111.619 38.0373 113.248 38.75C114.877 39.4627 115.62 41.361 114.908 42.99L99.8837 77.3314C99.171 78.9604 97.2727 79.7033 95.6437 78.9906Z" clip-rule="evenodd"/></svg>

<?xml version="1.0" encoding="utf-8"?>
<!-- Generator: Adobe Illustrator 25.3.1, SVG Export Plug-In . SVG Version: 6.00 Build 0)  -->
<svg version="1.1" id="Layer_1" xmlns="http://www.w3.org/2000/svg" xmlns:xlink="http://www.w3.org/1999/xlink" x="0px" y="0px"
	 viewBox="0 0 191 118" style="enable-background:new 0 0 191 118;" xml:space="preserve">
<style type="text/css">
	.st0{fill:#001FFF;}
	.st1{fill:#FFCE00;}
	.st2{fill:#FAF9FA;}
	.st3{fill-rule:evenodd;clip-rule:evenodd;fill:#969696;}
	.st4{fill:#FFFFFF;}
	.st5{fill:#969696;}
	.st6{fill-rule:evenodd;clip-rule:evenodd;fill:#FF0000;}
</style>
<path class="st0" d="M170.5,81c-0.6,0-1-0.4-1-1V45c0-0.6,0.4-1,1-1s1,0.4,1,1v35C171.5,80.6,171.1,81,170.5,81z"/>
<path class="st0" d="M142.5,92c-0.6,0-1-0.4-1-1V56c0-0.6,0.4-1,1-1s1,0.4,1,1v35C143.5,91.6,143.1,92,142.5,92z"/>
<path class="st1" d="M156.5,76c-0.6,0-1-0.4-1-1V40c0-0.6,0.4-1,1-1s1,0.4,1,1v35C157.5,75.6,157.1,76,156.5,76z"/>
<path class="st1" d="M184.5,66c-0.6,0-1-0.4-1-1V30c0-0.6,0.4-1,1-1s1,0.4,1,1v35C185.5,65.6,185.1,66,184.5,66z"/>
<path class="st0" d="M166.6,74c-1.2,0-2.1-1-2.1-2.1V52.1c0-1.2,1-2.1,2.1-2.1h7.7c1.2,0,2.1,1,2.1,2.1v19.7c0,1.2-1,2.1-2.1,2.1
	H166.6z"/>
<path class="st0" d="M138.6,85c-1.2,0-2.1-1-2.1-2.1V63.1c0-1.2,1-2.1,2.1-2.1h7.7c1.2,0,2.1,1,2.1,2.1v19.7c0,1.2-1,2.1-2.1,2.1
	H138.6z"/>
<path class="st1" d="M152.6,70c-1.2,0-2.1-1-2.1-2.1V48.1c0-1.2,1-2.1,2.1-2.1h7.7c1.2,0,2.1,1,2.1,2.1v19.7c0,1.2-1,2.1-2.1,2.1
	H152.6z"/>
<path class="st1" d="M181,59c-1.2,0-2.1-1-2.1-2.1V37.1c0-1.2,1-2.1,2.1-2.1h7.7c1.2,0,2.1,1,2.1,2.1v19.7c0,1.2-1,2.1-2.1,2.1H181z
	"/>
<path class="st2" d="M1.2,30.7c-0.6-6.3,4-11.9,10.3-12.5L55,14.1c6.3-0.6,11.9,4,12.5,10.3l5.9,62.7c0.6,6.3-4,11.9-10.3,12.5
	l-43.4,4.1c-6.3,0.6-11.9-4-12.5-10.3L1.2,30.7z"/>
<path class="st3" d="M55.2,16.1l-43.4,4.1c-5.2,0.5-9,5.1-8.5,10.3l5.9,62.7c0.5,5.2,5.1,9,10.3,8.5l43.4-4.1
	c5.2-0.5,9-5.1,8.5-10.3l-5.9-62.7C65,19.4,60.4,15.6,55.2,16.1z M11.5,18.2C5.2,18.8,0.6,24.4,1.2,30.7l5.9,62.7
	c0.6,6.3,6.2,10.9,12.5,10.3l43.4-4.1C69.4,99,74,93.4,73.4,87.1l-5.9-62.7c-0.6-6.3-6.2-10.9-12.5-10.3L11.5,18.2z"/>
<path class="st4" d="M7,46.6c-0.2-2.4,1.5-4.5,3.9-4.7L60,37.3c2.4-0.2,4.5,1.5,4.7,3.9l2.8,29.9c0.2,2.4-1.5,4.5-3.9,4.7l-49.1,4.7
	c-2.4,0.2-4.5-1.5-4.7-3.9L7,46.6z"/>
<path class="st3" d="M60.2,39.3L11.1,44c-1.3,0.1-2.2,1.2-2.1,2.5l2.8,29.9c0.1,1.3,1.2,2.2,2.5,2.1l49.1-4.7
	c1.3-0.1,2.2-1.2,2.1-2.5l-2.8-29.9C62.6,40.1,61.5,39.2,60.2,39.3z M10.9,42c-2.4,0.2-4.1,2.3-3.9,4.7l2.8,29.9
	c0.2,2.4,2.3,4.1,4.7,3.9l49.1-4.7c2.4-0.2,4.1-2.3,3.9-4.7l-2.8-29.9c-0.2-2.4-2.3-4.1-4.7-3.9L10.9,42z"/>
<path class="st1" d="M14.4,67.5c-0.2-2.4,1.5-4.5,3.9-4.7l38.5-3.6c2.4-0.2,4.5,1.5,4.7,3.9l0.2,2.1c0.2,2.4-1.5,4.5-3.9,4.7
	l-38.5,3.6c-2.4,0.2-4.5-1.5-4.7-3.9L14.4,67.5z"/>
<path class="st0" d="M13,52.5c-0.2-2.4,1.5-4.5,3.9-4.7l38.5-3.6c2.4-0.2,4.5,1.5,4.7,3.9l0.2,2.1c0.2,2.4-1.5,4.5-3.9,4.7
	l-38.5,3.6c-2.4,0.2-4.5-1.5-4.7-3.9L13,52.5z"/>
<path class="st5" d="M16,39.3L28.5,26c3-3.2,7.8-3.6,11.4-1.1l14.7,10.8L16,39.3z"/>
<path class="st5" d="M20.1,82.1l14.7,10.8c3.5,2.6,8.4,2.1,11.4-1.1l12.4-13.3L20.1,82.1z"/>
<path class="st6" d="M87.3,52.4c0-1.8,1.4-3.2,3.2-3.2h27.9c1.8,0,3.2,1.4,3.2,3.2s-1.4,3.2-3.2,3.2H90.5
	C88.7,55.7,87.3,54.2,87.3,52.4z"/>
<path class="st6" d="M87.3,65.3c0-1.8,1.4-3.2,3.2-3.2h27.9c1.8,0,3.2,1.4,3.2,3.2c0,1.8-1.4,3.2-3.2,3.2H90.5
	C88.7,68.5,87.3,67.1,87.3,65.3z"/>
<path class="st6" d="M95.6,79c-1.6-0.7-2.4-2.6-1.7-4.2l15-34.3c0.7-1.6,2.6-2.4,4.2-1.7s2.4,2.6,1.7,4.2l-15,34.3
	C99.2,79,97.3,79.7,95.6,79z"/>
</svg>
